land-plots-circle-variant.svg

<svg fill="currentColor" viewBox="0 0 24 24"><path d="M20 2H4c-1.1 0-2 .9-2 2v16c0 1.1.9 2 2 2h16c1.1 0 2-.9 2-2V4c0-1.1-.9-2-2-2m0 7c0 2.8-2.2 5-5 5s-5-2.2-5-5 2.2-5 5-5 5 2.2 5 5M4 4h4v10H4zm0 16v-4h4v4zm16 0H10v-4h10z"/></svg>

<svg  viewBox="0 0 24 24" fill="currentColor"><path  d="M20 2H4C2.9 2 2 2.9 2 4V20C2 21.1 2.9 22 4 22H20C21.1 22 22 21.1 22 20V4C22 2.9 21.1 2 20 2M20 9C20 11.8 17.8 14 15 14C12.2 14 10 11.8 10 9C10 6.2 12.2 4 15 4C17.8 4 20 6.2 20 9M4 4H8V14H4V4M4 20V16H8V20H4M20 20H10V16H20V20Z"/></svg>
